Obsidian-SemiLight/actions/22s/format-convert-to-path.svg

<svg viewBox="0 0 22 22" xmlns="http://www.w3.org/2000/svg"><path d="m6.75 3c-2.41984 0-3.973815 3.05944-4.203125 7h.9921875c.18843-3.38783 1.3234575-6 3.2109375-6s3.433252 2.61218 3.695312 6h.996094c-.2953-3.9406-2.271556-7-4.691406-7zm3.791016 9c.29904 3.9976 2.316644 6.9968 4.708984 7 2.3916 0 3.95105-3.0036 4.25-7h-1c-.26606 3.4408-1.38759 5.9958-3.25 6-1.86241 0-3.440971-2.5592-3.707031-6z" fill="#4d4d4d"/><path d="m1 9v4h4v-4zm8 0v4h4v-4zm8 0v4h4v-4zm-15 1h2v2h-2zm8 0h2v2h-2zm8 0h2v2h-2z" fill="#3daee9"/></svg>

<svg xmlns="http://www.w3.org/2000/svg" viewBox="0 0 22 22">
  <defs id="defs3051">
    <style type="text/css" id="current-color-scheme">
      .ColorScheme-Text {
        color:#4d4d4d;
      }
      .ColorScheme-Highlight {
        color:#3daee9;
      }
      </style>
  </defs>
 <path 
     style="fill:currentColor;fill-opacity:1;stroke:none" 
     d="M 6.75 3 C 4.33016 3 2.776185 6.05944 2.546875 10 L 3.5390625 10 C 3.7274925 6.61217 4.86252 4 6.75 4 C 8.63748 4 10.183252 6.61218 10.445312 10 L 11.441406 10 C 11.146106 6.0594 9.16985 3 6.75 3 z M 10.541016 12 C 10.840056 15.9976 12.85766 18.9968 15.25 19 C 17.6416 19 19.20105 15.9964 19.5 12 L 18.5 12 C 18.23394 15.4408 17.11241 17.9958 15.25 18 C 13.38759 18 11.809029 15.4408 11.542969 12 L 10.541016 12 z "
     class="ColorScheme-Text"
     />
 <path 
     style="fill:currentColor;fill-opacity:1;stroke:none" 
     d="M 1 9 L 1 13 L 5 13 L 5 9 L 1 9 z M 9 9 L 9 13 L 13 13 L 13 9 L 9 9 z M 17 9 L 17 13 L 21 13 L 21 9 L 17 9 z M 2 10 L 4 10 L 4 12 L 2 12 L 2 10 z M 10 10 L 12 10 L 12 12 L 10 12 L 10 10 z M 18 10 L 20 10 L 20 12 L 18 12 L 18 10 z "
     class="ColorScheme-Highlight"
     />
</svg>
